X:1
T:The Son Hath Made Me Free
T:The Son Hath Made Me Free
T:Willliam A. Stewart
T:Miriam Eulalie Oatman, 1905
T:Public Domain Courtesy of the Cyber Hymnal™
T:Public Domain Courtesy of the Cyber Hymnal™
C:Willliam A. Stewart
Z:Public Domain
Z:Courtesy of the Cyber Hymnal™
%%score ( 1 2 ) ( 3 4 )
L:1/8
Q:1/4=100
M:4/4
K:D
V:1 treble 
V:2 treble 
V:3 bass 
V:4 bass 
V:1
 FA | d4- [Fd][GB][FA][DF] | [DB][DA-] A4 FA | B4- ([GB][DA]) (3(BA)[DF] x3/4 | A6 FA | %5
w: 1.~I was|once in E- gypt’s bond-|* age * (E- gypt’s|age), * de- liv- * erance|came to me|
w: 2.~I was|once a slave to Sa-|* tan * (slave to|tan), * he worked * his|will in me|
w: 3.~Ere I|en- tered in- to Ca-|* naan * (in- to|naan), * bred sin * re-|mained in me|
w: 4.~All my|fear, all con- dem- na-|* tion * (con- dem-|tion), * that stood * ’twixt|God and me|
 d4- [Fd][GB][FA][DF] | [DB][DA-] A4 BB | A4- [EA][EA][GB][Gc] | d6 ||"^Refrain" z2 | %10
w: (came to me), And I’m|* liv- * ing now|Ca- naan (now in Ca-|||
w: (yes, in me), But I’m|* bound * by sin|long- er (bound no long-|||
w: (yes, in me); But from|* it * I’ve found|cleans- ing (found a cleans-|||
w: (God and me), Praise His|* name! * are left|hind me (left be- hind|||
 [GB]2 [GB]2 [DG][DB][DA][CG] | [DF][DA][Fd][Fd] [Gd][Fd] z2 | [Ec]2 [Ec]2 [CE][DF][FA][EG] | %13
w: naan), For the Son hath made|me free. * * * *||
w: er), For the Son hath made|me free. I am dwell- ing|now in Ca- naan (now in|
w: ing), For the Son hath made|me free. * * * *||
w: me) For the Son hath made|me free. * * * *||
 [DF]2 [GB][GB] [FA]2 z2 | [Fd]2 [Fd]2 [Fd][Ec][DB][Ec] | [Fd][FA][FA][FA] [GB][FA] z2 | %16
w: |||
w: Ca- naan), Je- sus’|blood a- vails for me (yes,|for me); I am free from|
w: |||
w: |||
 [FA]2 [FA]2 [EA][EA][GB][Gc] | d6 |] %18
w: ||
w: con- dem- na- tion (con- dem-|na-|
w: ||
w: ||
V:2
 x2 | F2 F2 x4 | x2 FF FF x2 | (G2 G2 D2) x11/4 | C2 CD E2 x2 | F2 F2 x4 | x2 FF FF x2 | F2 F2 x4 | %8
w: ||bond- * * *||||in * * *||
w: ||Sa- * * *||||no * * *||
w: ||Ca- * * *||||a * * *||
w: ||na- * * *||||be- * * *||
 (F2 GG F2) || x2 | x8 | x8 | x8 | x8 | x8 | x8 | x8 | (FFG^E F2) |] %18
w: ||||||||||
w: ||||||||||
w: ||||||||||
w: ||||||||||
V:3
 z2 | [D,A,]2 [D,A,]2 [D,A,][D,D][D,D][D,A,] | [D,G,][D,F,][D,D][D,D] [D,D][D,D] z2 | %3
w: |~ ~ ~ ~ ~ ~|~ ~ ~ ~ ~ ~|
 [G,D]2 [G,D]2 [G,D][G,D] D2 (3:2:1[D,A,] x/12 | [A,,A,]2 [A,,A,][B,,A,] [C,A,]2 z2 | %5
w: ~ ~ ~ ~ ~ ~|~ ~ ~ ~|
 [D,A,]2 [D,A,]2 [D,A,][D,D][D,D][D,A,] | [D,G,][D,F,][D,D][D,D] [D,D][D,D] z2 | %7
w: ~ ~ ~ ~ ~ ~|~ ~ ~ ~ ~ ~|
 [D,D]2 [D,D]2 [A,,C][A,,C][A,,E][A,,E] | (D2 B,B, A,2) || (3(C,E,)F, | %10
w: ~ ~ ~ ~ ~ ~|~ * * *|~ * I|
 (D2 D2 [G,B,])G,[F,A,][E,A,] | [D,A,]([D,-F,] A,A,B,A,)C,D, | %12
w: am * * dwell- ing now|in Ca- * * * * naan *|
 (A,2 A,2 [A,,A,])[A,,A,][B,,A,][C,A,] | (A,2 DD D2) F,E, | (A,2 A,2 [D,A,])[A,,A,][B,,F,][A,,A,] | %15
w: Je- * * sus’ blood a-|* * * * vails for|me; * * I am free|
 [D,A,]([D,-D] DDDD)F,G, | (D2 D2 [A,C])[A,C][C,E][C,E] | DA,B,^G, A,2 |] %18
w: * from con- * * * dem- na-|tion, * * For the Son|hath * made me free|
V:4
 x2 | x8 | x8 | x6 (3:2:2(G,F,) x17/12 | x8 | x8 | x8 | x8 | D,6 || x2 | G,4- G, x3 | x2 D,4 x2 | %12
 A,,4- x4 | D,6 x2 | D,4- x4 | x2 D,4 x2 | A,4- x4 | D,6 |] %18

